packages/dnb-ui-lib/assets/icons/graph_increase.svg

<svg width="16" height="16" viewBox="0 0 16 16" fill="none" xmlns="http://www.w3.org/2000/svg">
<path d="M0.75 15H1.75M15.25 15H14.25M2.66174 6.04036L12.6596 1.5M12.6596 1.5L11.9167 3.47929M12.6596 1.5L10.6803 0.757066M1.75 15V11.7333C1.75 11.6096 1.79917 11.4909 1.88668 11.4034C1.9742 11.3158 2.0929 11.2667 2.21667 11.2667H3.78333C3.9071 11.2667 4.0258 11.3158 4.11332 11.4034C4.20083 11.4909 4.25 11.6096 4.25 11.7333V15M1.75 15H4.25M4.25 15H6.75M6.75 15V8.93334C6.75 8.80957 6.79917 8.69087 6.88668 8.60335C6.9742 8.51584 7.0929 8.46667 7.21667 8.46667H8.78333C8.9071 8.46667 9.0258 8.51584 9.11332 8.60335C9.20083 8.69087 9.25 8.80957 9.25 8.93334V15M6.75 15H9.25M9.25 15H11.6737M11.6737 15V7.06667C11.6737 6.9429 11.7229 6.8242 11.8104 6.73669C11.8979 6.64917 12.0166 6.6 12.1404 6.6H13.7833C13.9071 6.6 14.0258 6.64917 14.1133 6.73669C14.2008 6.8242 14.25 6.9429 14.25 7.06667V15M11.6737 15H14.25" stroke="black" stroke-width="1.5" stroke-linecap="round" stroke-linejoin="round"/>
</svg>

<svg width="16" height="16" viewBox="0 0 16 16" fill="none" xmlns="http://www.w3.org/2000/svg"><path d="M.75 15h1m13.5 0h-1M2.662 6.04L12.66 1.5m0 0l-.743 1.98m.743-1.98L10.68.757M1.75 15v-3.267a.467.467 0 01.467-.466h1.566a.466.466 0 01.467.466V15m-2.5 0h2.5m0 0h2.5m0 0V8.933a.467.467 0 01.467-.466h1.566a.467.467 0 01.467.466V15m-2.5 0h2.5m0 0h2.424m0 0V7.067a.467.467 0 01.466-.467h1.643a.467.467 0 01.467.467V15m-2.576 0h2.576" stroke="#000" stroke-width="1.5" stroke-linecap="round" stroke-linejoin="round"/></svg>
